X:1
T:FREEDOM
M:3/4
Q:1/4=120
K:C
E3/2F/2G2G2|E3/2F/2G2G2|D3/2E/2F2A2|G3/2F/2E4|
A3/2A/2c2A2|G3/2F/2G2G2|D3/2E/2F2A2|G3/2F/2E4|
A3/2A/2c2A2|G3/2F/2G2G2|D3/2E/2F2A2|G3/2F/2E7/2||
